X:12
T:Jeanette's Wedding
C:Michael Gray
B:William Livingstone Volume 1
H:
O:Kevin Fraser
Z:Kevin Fraser
Q:1/4=90
K:HP
M:9/8
L:1/8
R:March
U: R = ///
U: r = //
U: V = !accent!
V:M gstem=up stem=down name="Melody" sname="Melody" 
V:H gstem=up stem=down name="Harmony" sname="Harmony"
V:C gstem=up stem=down name="C-Harmony" sname="C-Harmony"
V:S gstem=up stem=down clef=none dyn=up name="Snare" sname="Snare"
V:B gstem=up stem=down clef=none dyn=up name="Bass" sname="Bass"
V:T gstem=up stem=down clef=none dyn=up name="Tenor" sname="Tenor"
V:BB gstem=up stem=down name="Brass Bass" sname="Bass" transpose=-1  octave=-2 clef=bass
V:BC gstem=up stem=down name="Brass Chord" sname="ABCD-D" transpose=-1
V:BD gstem=up stem=down name="Brass Chord 2" sname="ABCD-B" transpose=-1
V:P gstem=up stem=down name="Piano" sname="Piano" transpose=0 octave=-1
I:MIDI=program 110
%%MIDI gracedivider 40
% %score {M BC BD BB}
% %MIDI program 109 #bagpipes
%%MIDI vol 100
[V:M] [: {g}A | {Gdc}d>f{g}A {Gdc}d3 {ag}a2g | {g}f>ga {fg}f3 {Gdc}d2c | {g}B2{GdGe}B {g}A3 {Gdc}d2f | {gf}g>ag {aef}e3 {a}e2{g}A | 
[V:M]         | {Gdc}d>f{g}A {Gdc}d3 {ag}a2g | {g}f>ga {fg}f3 {Gdc}d2c | {g}B2{GdGe}B {gcd}c3 {g}e>fg | {a}f>ga {Gdc}d3 {gdc}d2 :|]
[V:M] [: {g}A | {g}f>gf {ag}a3 {fg}f2a | {f}g>f{g}e {gfg}f3 {Gdc}d2{e}A | {g}B2{GdGe}B {g}A3 {Gdc}d2f | {gf}g>ag {aef}e3 {a}e2{g}A | 
[V:M]         | [1{g}f>gf {ag}a3 {fg}f2a | {f}g>f{g}e {gfg}f3 {Gdc}d2{e}A | {g}B2{GdGe}B {gcd}c3 {g}e>fg | {a}f>ga {Gdc}d3 {gdc}d2 :|]
[V:M]         | [2{Gdc}d>f{g}A {Gdc}d3 {ag}a2g | {g}f>ga {fg}f3 {Gdc}d2c | {g}B2{GdGe}B {gcd}c3 {g}e>fg | {a}f>ga {Gdc}d3 {gdc}d2 |]


